X: 1009
T: The Rambler From Clare
B:O'Neill's 1009
Z:Transcribed by Dan G. Petersen, dangp@post6.tele.dk
M:6/8
L:1/8
K:Am
(A/B/)|cAB GAE|DEG GAB|cBA GED|EAA A2B|
cAB GAE|DEG GAB|cde fed|cAA A2:|
B|(c3/2d/e/^f/) gef|gea ged|e^f^g aba|ge^f ged|
(c3/2d/e/^f/) ge^g|aba ged|cde =fed|cAA A2:|


